src/dsmComponents/Icons/heartrate-active-24px.svg

<?xml version="1.0" encoding="UTF-8"?>
<svg width="24px" height="23px" viewBox="0 0 24 23" version="1.1" xmlns="http://www.w3.org/2000/svg" xmlns:xlink="http://www.w3.org/1999/xlink">
    <!-- Generator: Sketch 59.1 (86144) - https://sketch.com -->
    <title>heartrate-active-24px</title>
    <desc>Created with Sketch.</desc>
    <defs>
        <path d="M9.82,8.243 L13.071,16.375 C13.212285,16.7277047 13.5412462,16.9698729 13.92,17 L13.92,17 L14,17 C14.3509854,16.9999332 14.6762425,16.8158613 14.857,16.515 L14.857,16.515 L17.566,12 L22.352,12 C19.287,17.289 12.978,22.5 12.6,22.8 C12.4175638,22.9108931 12.2124848,22.9792527 12,23 C11.7800767,23.0271901 11.5596246,22.953706 11.4,22.8 C11.022,22.5 4.713,17.289 1.648,12 L1.648,12 L7,12 C7.35098542,11.9999332 7.67624251,11.8158613 7.857,11.515 L7.857,11.515 L9.82,8.243 Z M17,-0.000133907864 C18.8600269,-0.0115324729 20.6472127,0.722261514 21.9624756,2.03752441 C23.2777385,3.3527873 24.0115325,5.13997313 24.0001339,7 C23.9715597,8.03282662 23.7472533,9.05085886 23.339,10 L23.339,10 L17,10 C16.6496185,9.99943288 16.3244974,10.1822898 16.143,10.482 L16.143,10.482 L14.18,13.754 L10.929,5.625 C10.787715,5.27229529 10.4587538,5.0301271 10.08,5 C9.70011548,4.96665541 9.3351156,5.15558277 9.143,5.485 L9.143,5.485 L6.434,10 L0.661,10 C0.252746692,9.05085886 0.028440254,8.03282662 -0.000133907864,7 C-0.0115324729,5.13997313 0.722261514,3.3527873 2.03752441,2.03752441 C3.3527873,0.722261514 5.13997313,-0.0115324729 7,-0.000133907864 C8.8784552,0.0129057944 10.6756745,0.76773788 12,2.1 C13.3243255,0.76773788 15.1215448,0.0129057944 17,-0.000133907864 Z" id="path-1"></path>
    </defs>
    <g id="Final" stroke="none" stroke-width="1" fill="none" fill-rule="evenodd">
        <g id="All-Nucleo-Icons" transform="translate(-608.000000, -3614.000000)">
            <g id="Solo/Nucleo/24px/heartrate-active" transform="translate(608.000000, 3614.000000)">
                <g id="heartbeat">
                    <g id="Colour/Default-Colour">
                        <mask id="mask-2" fill="white">
                            <use xlink:href="#path-1"></use>
                        </mask>
                        <use id="Mask" fill="#000000" fill-rule="nonzero" xlink:href="#path-1"></use>
                        <g id="colour/neutral/chia" mask="url(#mask-2)" fill="#737373">
                            <g transform="translate(-20.000000, -20.000000)" id="Colour">
                                <rect x="0" y="0" width="64" height="64"></rect>
                            </g>
                        </g>
                    </g>
                </g>
            </g>
        </g>
    </g>
</svg>

<svg width="24" height="23" xmlns="http://www.w3.org/2000/svg" xmlns:xlink="http://www.w3.org/1999/xlink"><defs><path d="M9.82 8.243l3.251 8.132a1 1 0 00.849.625H14a1 1 0 00.857-.485L17.566 12h4.786c-3.065 5.289-9.374 10.5-9.752 10.8-.182.11-.388.18-.6.2a.735.735 0 01-.6-.2c-.378-.3-6.687-5.511-9.752-10.8H7a1 1 0 00.857-.485L9.82 8.243zM17 0a6.958 6.958 0 017 7 8.164 8.164 0 01-.661 3H17a1 1 0 00-.857.482l-1.963 3.272-3.251-8.129a1 1 0 00-1.786-.14L6.434 10H.661A8.164 8.164 0 010 7a6.958 6.958 0 017-7 7.12 7.12 0 015 2.1A7.12 7.12 0 0117 0z" id="heartrate-active-24px_svg__a"/></defs><use fill="#737373" xlink:href="#heartrate-active-24px_svg__a" fill-rule="evenodd"/></svg>
